X: 17022
T: Heart Shaped Wood
R: slip jig
M: 9/8
K: Bminor
Bfe dBA B2F|ABF ABF EFA|Bfe dBA B2F|ABA AB/c/d ecA:|
~B3 dBe ~f3|~B3 d2e fef|~B3 def dec|~A3 AB/c/d ecA|
~B3 dBe ~f3|~B3 d2e fef|baf efa fed|BAF EFA EFA||

